X: 55
T: No_19_Dancing_Song_from_the_South_God_(b).krn
N: Derived from No_19_Dancing_Song_from_the_South_God_(b).krn
%%abc-version 2.0
%%abcx-abcm2ps-target-version 5.9.1 (29 Sep 2008)
%%abc-creator hum2abc beta
%%abcx-conversion-date 2019/03/15 08:35:44
%%humdrum-veritas 1939349464
%%humdrum-veritas-data 2534710612
%%linebreak <none>
%%barnumbers 0
L: 1/8
M: 3/4
K: G clef=bass
[K:clef=bass][M:3/4]z4z D, | 
G,3/G,/ G,E, G, z/ G,/ ||  
[M:2/4]A,B,A,2 ||  
[M:3/4]G,D,D,3D, | 
G,3/G,/ G,E, G, z/ G,/ ||  
[M:2/4]A,B,A,2 ||  
[M:3/4]G,D,D,3D, | 
G,3/G,/ G,E, G, z/ G,/ ||  
[M:2/4]A,B,A,2 | 
G,D, D, z |]  



